X: 546
T: Nian gaomian
L: 1/8
M: 2/4
K: F
A f e d [I:setbarnb 1]| 
A f e d | 
f c d c | 
d c A f | 
e d f c- | 
c dc2 | 
f cf2 | 
g f e d | 
c df2 | 
f> A A G | 
F GF2 | 
c B A G | 
A/ A/ A/ G/F2 | 
c> df2 | 
c2B2 | 
A A/ G/ A G/ G/ | 
F GF2 |]

@@@ Tune index: 9420
